svgs/solid/circle-up.svg

<svg xmlns="http://www.w3.org/2000/svg" viewBox="0 0 512 512"><!--! Font Awesome Pro 6.1.2 by @fontawesome - https://fontawesome.com License - https://fontawesome.com/license (Commercial License) Copyright 2022 Fonticons, Inc. --><path d="M256 0C114.6 0 0 114.6 0 256s114.6 256 256 256c141.4 0 256-114.6 256-256S397.4 0 256 0zM382.8 246.1C380.3 252.1 374.5 256 368 256h-64v96c0 17.67-14.33 32-32 32h-32c-17.67 0-32-14.33-32-32V256h-64C137.5 256 131.7 252.1 129.2 246.1C126.7 240.1 128.1 233.3 132.7 228.7l112-112c6.248-6.248 16.38-6.248 22.62 0l112 112C383.9 233.3 385.3 240.1 382.8 246.1z"/></svg>

<svg xmlns="http://www.w3.org/2000/svg" viewBox="0 0 512 512"><!--! Font Awesome Pro 6.2.0 by @fontawesome - https://fontawesome.com License - https://fontawesome.com/license (Commercial License) Copyright 2022 Fonticons, Inc. --><path d="M256 512c141.4 0 256-114.6 256-256S397.4 0 256 0S0 114.6 0 256S114.6 512 256 512zm11.3-395.3l112 112c4.6 4.6 5.9 11.5 3.5 17.4s-8.3 9.9-14.8 9.9H304v96c0 17.7-14.3 32-32 32H240c-17.7 0-32-14.3-32-32V256H144c-6.5 0-12.3-3.9-14.8-9.9s-1.1-12.9 3.5-17.4l112-112c6.2-6.2 16.4-6.2 22.6 0z"/></svg>
